X: 278
T:The Rose in the Heather
Z:Lesl
M:6/8
K:D
D2E|:F~F2 E~E2|DFA BAF|ABd ede|fdB AFE|
F2F E~E2|DFA BAF|BdB AFE|1 FDA D2E:|2 FDA d2e||
|:fdB ABd|faa afd|g2e fed|Bee e3|
fdB ABd|faa afa|baf ede|1 fdc d2e:|2 fdB AFE|F~F2 E~E2|D6||

